_includes/icons/color-land-sales.svg

<svg fill="#666" height="50" viewBox="0 0 48 48" width="50" xmlns="http://www.w3.org/2000/svg"><path d="m36 30h-24l-6 12h36z" fill="#8bc34a"/><path d="m22 36 9-6h5l-10.699219 6.699219z" fill="#689f38"/><path d="m22 36v-28c0-1.101562.898438-2 2-2 1.101563 0 2 .898438 2 2v28s-.199219 1-2 1-2-1-2-1z" fill="#795548"/><path d="m8 10h32v14h-32z" fill="#ff3d00"/><path d="m15.199219 18.800781c0-.300781-.097656-.5-.300781-.601562-.199219-.199219-.5-.300781-1-.5s-.898438-.300781-1.199219-.5c-1-.5-1.5-1.199219-1.5-2 0-.398438.101562-.800781.402344-1.097656.199218-.300782.597656-.601563 1-.800782.398437-.199218 1-.300781 1.5-.300781s1 .101563 1.5.300781c.398437.199219.796875.5 1 .898438.199218.402344.398437.800781.398437 1.300781h-1.800781c0-.300781-.097656-.601562-.300781-.699219-.199219-.199218-.398438-.300781-.796875-.300781-.300782 0-.601563.101563-.800782.199219-.199218.101562-.300781.300781-.300781.601562 0 .199219.101563.398438.300781.5.199219.199219.597657.300782 1.097657.5.5.199219 1 .398438 1.300781.597657.800781.5 1.199219 1.203125 1.199219 2 0 .703125-.296875 1.203125-.796875 1.601562-.5.398438-1.203125.601563-2.101563.601563-.601562 0-1.199219-.101563-1.699219-.300782-.5-.199218-.902343-.5-1.101562-.902343-.300781-.398438-.398438-.796875-.398438-1.398438h1.800782c0 .398438.097656.699219.296875.898438.203125.203125.601562.300781 1 .300781.300781 0 .5-.097656.703125-.199219.5-.199219.597656-.398437.597656-.699219zm7.5.699219h-2.398438l-.402343 1.5h-1.898438l2.699219-8h1.601562l2.699219 8h-1.898437zm-2-1.5h1.601562l-.800781-2.800781zm7.199219 1.5h3.300781v1.5h-5.199219v-8h1.898438zm8.902343-1.898437h-3v1.898437h3.199219v1.5h-5v-8h5v1.5h-3.101562v1.699219h3v1.402344z" fill="#fff"/></svg>

<svg xmlns="http://www.w3.org/2000/svg" viewBox="0 0 48 48" width="50" height="50" fill="#666"><path d="M 36 30 L 12 30 L 6 42 L 42 42 Z" fill="#8bc34a"/><path d="M 22 36 L 31 30 L 36 30 L 25.300781 36.699219 Z" fill="#689f38"/><path d="M 22 36 L 22 8 C 22 6.898438 22.898438 6 24 6 C 25.101563 6 26 6.898438 26 8 L 26 36 C 26 36 25.800781 37 24 37 C 22.199219 37 22 36 22 36 Z" fill="#795548"/><path d="M 8 10 L 40 10 L 40 24 L 8 24 Z" fill="#ff3d00"/><path d="M 15.199219 18.800781 C 15.199219 18.5 15.101563 18.300781 14.898438 18.199219 C 14.699219 18 14.398438 17.898438 13.898438 17.699219 C 13.398438 17.5 13 17.398438 12.699219 17.199219 C 11.699219 16.699219 11.199219 16 11.199219 15.199219 C 11.199219 14.800781 11.300781 14.398438 11.601563 14.101563 C 11.800781 13.800781 12.199219 13.5 12.601563 13.300781 C 13 13.101563 13.601563 13 14.101563 13 C 14.601563 13 15.101563 13.101563 15.601563 13.300781 C 16 13.5 16.398438 13.800781 16.601563 14.199219 C 16.800781 14.601563 17 15 17 15.5 L 15.199219 15.5 C 15.199219 15.199219 15.101563 14.898438 14.898438 14.800781 C 14.699219 14.601563 14.5 14.5 14.101563 14.5 C 13.800781 14.5 13.5 14.601563 13.300781 14.699219 C 13.101563 14.800781 13 15 13 15.300781 C 13 15.5 13.101563 15.699219 13.300781 15.800781 C 13.5 16 13.898438 16.101563 14.398438 16.300781 C 14.898438 16.5 15.398438 16.699219 15.699219 16.898438 C 16.5 17.398438 16.898438 18.101563 16.898438 18.898438 C 16.898438 19.601563 16.601563 20.101563 16.101563 20.5 C 15.601563 20.898438 14.898438 21.101563 14 21.101563 C 13.398438 21.101563 12.800781 21 12.300781 20.800781 C 11.800781 20.601563 11.398438 20.300781 11.199219 19.898438 C 10.898438 19.5 10.800781 19.101563 10.800781 18.5 L 12.601563 18.5 C 12.601563 18.898438 12.699219 19.199219 12.898438 19.398438 C 13.101563 19.601563 13.5 19.699219 13.898438 19.699219 C 14.199219 19.699219 14.398438 19.601563 14.601563 19.5 C 15.101563 19.300781 15.199219 19.101563 15.199219 18.800781 Z M 22.699219 19.5 L 20.300781 19.5 L 19.898438 21 L 18 21 L 20.699219 13 L 22.300781 13 L 25 21 L 23.101563 21 Z M 20.699219 18 L 22.300781 18 L 21.5 15.199219 Z M 27.898438 19.5 L 31.199219 19.5 L 31.199219 21 L 26 21 L 26 13 L 27.898438 13 Z M 36.800781 17.601563 L 33.800781 17.601563 L 33.800781 19.5 L 37 19.5 L 37 21 L 32 21 L 32 13 L 37 13 L 37 14.5 L 33.898438 14.5 L 33.898438 16.199219 L 36.898438 16.199219 L 36.898438 17.601563 Z" fill="#fff"/></svg>
